src/icons/sibur.svg

<svg width="163" height="30" viewBox="0 0 163 30" fill="none" xmlns="http://www.w3.org/2000/svg">
<g clip-path="url(#clip0_8_624)">
<path d="M30.6481 12.9716C30.6481 12.9716 31.4116 4.40932 31.4893 3.57102C31.5119 3.08362 31.4351 2.59672 31.2633 2.13932C31.0916 1.68192 30.8285 1.26339 30.4898 0.908673C30.151 0.553959 29.7435 0.270323 29.2916 0.0746687C28.8396 -0.120986 28.3524 -0.224653 27.8591 -0.230153H6.0067C4.99925 -0.299207 4.00479 0.0265942 3.2383 0.676821C2.47181 1.32705 1.99487 2.24946 1.91058 3.24465C1.81352 4.24934 0.0016558 24.951 -0.10835 26.1413C-0.172903 26.6482 -0.128868 27.1628 0.0208926 27.6518C0.170653 28.1407 0.422788 28.593 0.760904 28.9793C1.09902 29.3656 1.51555 29.6772 1.98342 29.8938C2.45129 30.1105 2.96003 30.2273 3.47656 30.2368H25.1995C28.0856 30.2368 29.205 28.7266 29.4509 26.3972C29.5998 25.0022 30.3116 16.5743 30.3116 16.5743H17.1756L16.6126 23.0888H13.2865L14.7166 6.91784H18.0427L17.512 12.9716H30.6481Z" fill="#008C95"/>
<path d="M50.915 2.37414C50.4491 3.70519 46.6247 15.5374 46.6247 15.5374L48.3266 -0.243164H35.1971L32.4469 30.2366H42.341C44.8258 30.2366 45.6735 28.8415 46.0877 27.7217C46.5859 26.3906 50.2291 16.4333 50.2291 16.4333L48.8896 30.2366H62.0256L64.7305 -0.230365H54.4222C53.6299 -0.236054 52.8575 0.015712 52.2239 0.486247C51.5903 0.956781 51.1304 1.62005 50.915 2.37414Z" fill="#008C95"/>
<path d="M117.449 -0.230469L116.22 13.6624H112.887L114.117 -0.230469H100.987C100.987 -0.230469 99.7254 14.4879 99.5895 15.9021C99.4342 17.5979 100.405 19.9976 103.31 19.9976H115.663L115.392 23.0885H98.9553L98.3082 30.2365H124.444C126.217 30.2365 127.926 29.091 128.159 26.6465C128.308 25.0787 130.566 -0.230469 130.566 -0.230469H117.449Z" fill="#008C95"/>
<path d="M151.719 -0.223633H133.886L131.194 30.2369H144.323L145.158 20.8108H157.919C160.177 20.8108 161.672 19.6717 161.918 17.0608C162.008 16.0433 163.05 4.49903 163.115 3.48155C163.277 1.229 161.465 -0.223633 159.232 -0.223633H151.719ZM145.721 14.4947L146.368 6.93716H149.662L149.015 14.4947H145.721Z" fill="#008C95"/>
<path d="M80.306 10.002L80.5843 6.91752H97.0334L97.6805 -0.230469H68.0759L65.384 30.2301H91.5914C93.2609 30.2301 95.0663 29.2574 95.2992 26.7105C95.4739 24.7907 96.2828 15.7421 96.4316 14.0975C96.6258 11.9026 95.2151 10.002 92.452 10.002H80.306ZM82.4285 23.8948H79.0766L79.7237 16.3437H83.0691L82.4285 23.8948Z" fill="#008C95"/>
</g>
<defs>
<clipPath id="clip0_8_624">
<rect width="163" height="30" fill="white"/>
</clipPath>
</defs>
</svg>

<svg xmlns="http://www.w3.org/2000/svg" width="163" height="30" fill="none"><g fill="#008C95" clip-path="url(#a)"><path d="M30.648 12.972s.764-8.563.841-9.401a3.597 3.597 0 0 0-1-2.662 3.677 3.677 0 0 0-1.197-.834 3.71 3.71 0 0 0-1.433-.305H6.007a3.872 3.872 0 0 0-2.769.907 3.787 3.787 0 0 0-1.327 2.568C1.814 4.249 0 24.95-.11 26.14a3.603 3.603 0 0 0 .87 2.838c.338.387.755.698 1.222.915.468.216.977.333 1.494.343H25.2c2.886 0 4.005-1.51 4.25-3.84.15-1.395.862-9.823.862-9.823H17.176l-.563 6.515h-3.326l1.43-16.171h3.326l-.531 6.054h13.136ZM50.915 2.374c-.466 1.331-4.29 13.163-4.29 13.163l1.702-15.78h-13.13l-2.75 30.48h9.894c2.485 0 3.332-1.395 3.747-2.515.498-1.331 4.141-11.289 4.141-11.289l-1.34 13.804h13.137L64.73-.23H54.422a3.644 3.644 0 0 0-2.198.716 3.576 3.576 0 0 0-1.309 1.888ZM117.449-.23l-1.229 13.892h-3.333l1.23-13.892h-13.13s-1.262 14.718-1.397 16.132c-.156 1.696.815 4.096 3.72 4.096h12.353l-.271 3.09H98.955l-.647 7.148h26.136c1.773 0 3.482-1.145 3.715-3.59.149-1.567 2.407-26.876 2.407-26.876h-13.117ZM151.719-.224h-17.833l-2.692 30.46h13.129l.835-9.425h12.761c2.258 0 3.753-1.14 3.999-3.75.09-1.018 1.132-12.562 1.197-13.58.162-2.252-1.65-3.705-3.883-3.705h-7.513Zm-5.998 14.719.647-7.558h3.294l-.647 7.558h-3.294ZM80.306 10.002l.278-3.084h16.45L97.68-.23H68.076l-2.692 30.46h26.207c1.67 0 3.475-.973 3.708-3.52.175-1.92.984-10.968 1.133-12.613.194-2.194-1.217-4.095-3.98-4.095H80.306Zm2.123 13.893h-3.352l.647-7.551h3.345l-.64 7.55Z"/></g><defs><clipPath id="a"><path fill="#fff" d="M0 0h163v30H0z"/></clipPath></defs></svg>
